X:1
T:Cloud, 87.87 D
T:Cloud, 87.87 D
T:Edwin H. Cloud, 1910
T:Public Domain Courtesy of the Cyber Hymnal™
C:Edwin H. Cloud, 1910
Z:Public Domain
Z:Courtesy of the Cyber Hymnal™
%%score ( 1 2 ) 3
L:1/8
Q:1/4=100
M:3/4
K:G
V:1 treble 
V:2 treble 
V:3 bass 
V:1
 [DB][DB] [DB]2 [B,D]2 | [DB][DB] [DB]2 [B,D]2 | [B,D][B,E] [B,F]2 [B,G]2 | [CA][DB] E4 | %4
 [Ec][Ec] [Dc]2 [DA]2 | [DG][DA] [DB]2 [DG]2 | [DF][DG] [^CA]2 [CE]2 | [^CF][CG] [=CA]4 | %8
 [Gd][Gd] [Gd]2 [FB]2 | [Ge][GB] [Gd]2 [GB]2 | [DG][DA] [GB]2 [Fc]2 | [Gd][GB] [FA]4 | %12
 [Gd][Gd] [Gd]2 [GB]2 | [Ge][GB] [Gd]2 [GB]2 | [Ge][Ge] [Gd]2 [GB]2 | [DG][DA] [DG]4 |] %16
V:2
 x6 | x6 | x6 | x2 (CD C2) | x6 | x6 | x6 | x6 | x6 | x6 | x6 | x6 | x6 | x6 | x6 | x6 |] %16
V:3
 [G,,G,][G,,G,] [G,,G,]2 [G,,G,]2 | [G,,G,][G,,G,] [G,,G,]2 [G,,G,]2 | %2
 [G,,G,][G,,G,] [G,,D,]2 [G,,D,]2 | [G,,G,][G,,G,] ([C,G,][B,,^G,] [A,,A,]2) | %4
 [A,,A,][A,,G,] [D,F,]2 [C,F,]2 | [B,,G,][A,,F,] [G,,G,]2 [B,,G,]2 | %6
 [B,,G,][B,,G,] [A,,G,]2 [A,,G,]2 | [A,,E,][A,,E,] [D,F,]4 | [G,B,][G,B,] [G,B,]2 [G,D]2 | %9
 [G,C][G,D] [G,B,]2 [G,D]2 | [G,B,][G,C] [G,D]2 [A,D]2 | [B,D][G,D] [D,D]4 | %12
 [G,B,][G,B,] [G,B,]2 [G,D]2 | [G,C][G,D] [G,B,]2 [G,D]2 | [C,C][C,C] [D,B,]2 [D,D]2 | %15
 [D,B,][D,C] [G,B,]4 |] %16

